X: 789
T: Gel Ey Sâkî Bana Sun
C: Tanburî Cemil Bey
O: Turkey
F: http://compmusic.upf.edu/node/140
N: segah--sarki--aksak--gel_ey--tanburi_cemil_bey
N: makam= segah
N: form= sarki
N: usul= aksak = 9/8
M: 9/8
L: 1/16
K: C _1/4B _1/4e ^f 
Q: 1/4=120
%%MIDI tuningsystem comma53
=fed2 c2B2 ^A2B2 c2d2 cB | B6 c2d2 {e}dcd4z2  | \
w:  Gel  *  ey  *  *  sâ  |  kî   | 
d2e2 c2d2 e2d2 g2f2 e2 | 
w:  ba na  *  *  sun  *  bir  *  pi  | 
d3cd2 e2dc dcB4z2  | =f2g4f2 g2ag f4 e2 | \
w:  yâ *  *  *  le    |  Gel  ey  *  sâ  | 
=f2 g2a2 agf3ed4e2  | 
w:  kî  *  *  *  *  *  *  *  ba  | 
g4 =f2e2 d2c2 d4 e2 | dc c4 cBB2 BAB4z2  | \
w:  na  *  *  sun  *  bir  pi  |  yâ *  *  *  *  le    | 
B2c4B2 A4 A4 AG | 
w:  E riş *  ti  mev sim_  | 
G8B2 cdd4z2  | z2e2 d2e2 d2c2 e2dc cB | \
w:  i  gül   |  fas *  lı  lâ  | 
B6 A2dc B^AB4z2  | 
w:  le   SAZ  | 
B2c4B2 A4 A4 AG | G8B2 cdd4z2  | z2e2 d2e2 d2c2 e2dc cB | 
w:  E riş *  ti  mev sim_  |  i  gül   |  fas *  lı  lâ  | 
B6 g2f2 a2g4z2  | f2g4f2 aggf g6 | a2 agc'b agag =fgf4e2  | 
w:  le   SAZ  |  He zâr_ *  ı  *  *  *  nev  |  ba *  *  har  *  *  *  er *  *  *  di   | 
=f2g2 a2b2 c'4 b2a2 g2 | gf gab2 agfe edd4z2  | 
w:  vi sâ  |  le    | 
=f2g4f2 g2ag f4 e/^d/e | =f2 g2a2 agf2 e2d4e2  | \
w:  Gö nül  *  has  |  ret *  *  *  *  *  *  *  le   | 
g4 =f2e2 d2c2 d4 e2 | 
w:  gir *  *  di  *  bak  ne   | 
dc c4 cBB4B2 ^ABz2  | B2c4B2 A4 B4 AG | \
w:  hâ *  *  *  *  *  *  le    |  E riş *  ti  mev sim_  | 
G8B2 Bcd4z2  | 
w:  i  gül   | 
z2e2 d2e2 d2c2 e2dc cB | B6 ^A2dc BAB4z2  | |


